assets/fullscreen-off-hover.svg

<?xml version="1.0" encoding="utf-8"?>
<!-- Generator: Adobe Illustrator 22.0.0, SVG Export Plug-In . SVG Version: 6.00 Build 0)  -->
<svg version="1.1" id="Layer_1" xmlns="http://www.w3.org/2000/svg" xmlns:xlink="http://www.w3.org/1999/xlink" x="0px" y="0px"
	 width="18px" height="18px" viewBox="0 0 18 18" style="enable-background:new 0 0 18 18;" xml:space="preserve">
<style type="text/css">
	.st0{fill:none;}
	.st1{fill:#FFB600;}
</style>
<path class="st0" d="M0,0h18v18H0V0z"/>
<path class="st1" d="M3.8,12H6v2.2h1.5v-3.8H3.8V12z M6,6H3.8v1.5h3.8V3.8H6V6z M10.5,14.2H12V12h2.2v-1.5h-3.8V14.2z M12,6V3.8
	h-1.5v3.8h3.8V6H12z"/>
</svg>

<svg xmlns="http://www.w3.org/2000/svg" viewBox="0 0 18 18" width="18" height="18">
	<style>
		tspan { white-space:pre }
		.shp0 { fill: none } 
		.shp1 { fill: #ea1e65 } 
	</style>
	<path id="Layer" class="shp0" d="M0 0L18 0L18 18L0 18L0 0Z" />
	<path id="Layer" class="shp1" d="M3.8 12L6 12L6 14.2L7.5 14.2L7.5 10.4L3.8 10.4L3.8 12ZM6 6L3.8 6L3.8 7.5L7.6 7.5L7.6 3.8L6 3.8L6 6ZM10.5 14.2L12 14.2L12 12L14.2 12L14.2 10.5L10.4 10.5L10.4 14.2L10.5 14.2ZM12 6L12 3.8L10.5 3.8L10.5 7.6L14.3 7.6L14.3 6L12 6Z" />
</svg>
